X: 182
M: C|
L: 1/8
K: Gm
[|\
g2 ^f2 g2 d2 | e2 dc B2 G2 |\
d2 f>g f2 d2 | B2 d>e d2 B2 |
d2 g>a g2 =ef | =e2 a>b a2 ^f>g |\
^f2 g>a d2 g2 | g3 ^f g4 |]

